humanity-icon-theme/Humanity/actions/16/edit-copy.svg

<?xml version="1.0" encoding="UTF-8" standalone="no"?>
<!-- Created with Inkscape (http://www.inkscape.org/) -->

<svg
   xmlns:svg="http://www.w3.org/2000/svg"
   xmlns="http://www.w3.org/2000/svg"
   xmlns:xlink="http://www.w3.org/1999/xlink"
   version="1.1"
   width="16"
   height="16"
   id="svg3150">
  <defs
     id="defs3152">
    <linearGradient
       id="linearGradient3931">
      <stop
         id="stop3933"
         style="stop-color:#8d8f8a;stop-opacity:1"
         offset="0" />
      <stop
         id="stop3935"
         style="stop-color:#c1c1c1;stop-opacity:1"
         offset="1" />
    </linearGradient>
    <linearGradient
       x1="-53.179272"
       y1="16.539951"
       x2="-52.184364"
       y2="5.3934226"
       id="linearGradient4547"
       xlink:href="#linearGradient3931"
       gradientUnits="userSpaceOnUse"
       gradientTransform="matrix(0.3000362,0,0,0.3120485,22.157115,-0.3741276)" />
    <linearGradient
       id="linearGradient3600">
      <stop
         id="stop3602"
         style="stop-color:#f4f4f4;stop-opacity:1"
         offset="0" />
      <stop
         id="stop3604"
         style="stop-color:#dbdbdb;stop-opacity:1"
         offset="1" />
    </linearGradient>
    <linearGradient
       x1="25.132275"
       y1="6.7287393"
       x2="25.132275"
       y2="47.013336"
       id="linearGradient4545"
       xlink:href="#linearGradient3600"
       gradientUnits="userSpaceOnUse"
       gradientTransform="matrix(0.3715633,0,0,0.3334383,0.08245345,-0.0025171)" />
    <linearGradient
       x1="25.132275"
       y1="6.7287393"
       x2="25.132275"
       y2="47.013336"
       id="linearGradient2837"
       xlink:href="#linearGradient3600"
       gradientUnits="userSpaceOnUse"
       gradientTransform="matrix(0.3715633,0,0,0.3334383,-5.917546,-4.0025171)" />
    <linearGradient
       x1="-51.786404"
       y1="50.786446"
       x2="-51.786404"
       y2="2.9062471"
       id="linearGradient2839"
       xlink:href="#linearGradient3931"
       gradientUnits="userSpaceOnUse"
       gradientTransform="matrix(0.3000362,0,0,0.3120485,16.157115,-4.3741276)" />
  </defs>
  <g
     id="layer1">
    <path
       d="m 0.499974,0.5 9.0000002,0 0.0024,11.002374 -9.0047472,0.0597 L 0.499974,0.5 z"
       id="path2835"
       style="fill:url(#linearGradient2837);fill-opacity:1;stroke:url(#linearGradient2839);stroke-width:0.9952535;stroke-linecap:butt;stroke-linejoin:round;stroke-miterlimit:4;stroke-opacity:1;stroke-dasharray:none;stroke-dashoffset:0;display:inline" />
    <path
       d="m 6.499974,4.5 9,0 0.0024,11.002374 -9.0047472,0.0597 L 6.499974,4.5 z"
       id="rect2594"
       style="fill:url(#linearGradient4545);fill-opacity:1;stroke:url(#linearGradient4547);stroke-width:0.9952535;stroke-linecap:butt;stroke-linejoin:round;stroke-miterlimit:4;stroke-opacity:1;stroke-dasharray:none;stroke-dashoffset:0;display:inline" />
    <path
       d="m 8.5746037,6.5298507 4.9253963,5e-7 m -4.9253963,5.9999998 3.9253963,0 M 8.5746037,8.5298507 11.5,8.53 m -2.9253963,1.999851 4.9253963,0 M 2.5746037,2.5298507 l 4.5223882,5e-7 M 2.5746037,8.5298507 5.5,8.5298512 M 2.5746037,4.5298507 5.5,4.5298512 M 2.5746037,6.5298507 5.5,6.5298512"
       id="path3639"
       style="opacity:0.2;fill:none;stroke:#000000;stroke-width:0.995;stroke-linecap:square;stroke-linejoin:round;stroke-miterlimit:4;stroke-opacity:1;stroke-dasharray:none;stroke-dashoffset:0;display:inline" />
  </g>
</svg>

<?xml version="1.0" encoding="UTF-8" standalone="no"?>
<!-- Created with Inkscape (http://www.inkscape.org/) -->
<svg id="svg3150" xmlns="http://www.w3.org/2000/svg" height="16" width="16" version="1.1" xmlns:xlink="http://www.w3.org/1999/xlink">
 <defs id="defs3152">
  <linearGradient id="linearGradient3931">
   <stop id="stop3933" style="stop-color:#8d8f8a" offset="0"/>
   <stop id="stop3935" style="stop-color:#c1c1c1" offset="1"/>
  </linearGradient>
  <linearGradient id="linearGradient4547" y2="5.3934" xlink:href="#linearGradient3931" gradientUnits="userSpaceOnUse" x2="-52.184" gradientTransform="matrix(.30004 0 0 .31205 22.157 -.37413)" y1="16.54" x1="-53.179"/>
  <linearGradient id="linearGradient3600">
   <stop id="stop3602" style="stop-color:#f4f4f4" offset="0"/>
   <stop id="stop3604" style="stop-color:#dbdbdb" offset="1"/>
  </linearGradient>
  <linearGradient id="linearGradient4545" y2="47.013" xlink:href="#linearGradient3600" gradientUnits="userSpaceOnUse" x2="25.132" gradientTransform="matrix(.37156 0 0 .33344 .082453 -.0025171)" y1="6.7287" x1="25.132"/>
  <linearGradient id="linearGradient2837" y2="47.013" xlink:href="#linearGradient3600" gradientUnits="userSpaceOnUse" x2="25.132" gradientTransform="matrix(.37156 0 0 .33344 -5.9175 -4.0025)" y1="6.7287" x1="25.132"/>
  <linearGradient id="linearGradient2839" y2="2.9062" xlink:href="#linearGradient3931" gradientUnits="userSpaceOnUse" x2="-51.786" gradientTransform="matrix(.30004 0 0 .31205 16.157 -4.3741)" y1="50.786" x1="-51.786"/>
 </defs>
 <g id="layer1">
  <path id="path2835" style="stroke-linejoin:round;stroke:url(#linearGradient2839);stroke-width:.99525;fill:url(#linearGradient2837)" d="m0.49997 0.5h9l0.0024 11.002-9.0047 0.0597 0.00227-11.062z"/>
  <path id="rect2594" style="stroke-linejoin:round;stroke:url(#linearGradient4547);stroke-width:.99525;fill:url(#linearGradient4545)" d="m6.5 4.5h9l0.0024 11.002-9.0047 0.0597 0.0027-11.062z"/>
  <path id="path3639" style="opacity:.2;stroke-linejoin:round;stroke:#000;stroke-linecap:square;stroke-width:.995;fill:none" d="m8.5746 6.5299 4.9254 5e-7m-4.9254 6h3.9254m-3.9254-4.0001 2.9254 0.0001m-2.9254 1.9999h4.9254m-10.925-8.0001l4.5224 5e-7m-4.5224 6h2.9254m-2.9254-4h2.9254m-2.9254 2h2.9254"/>
 </g>
</svg>
